X:1
T:Nunc dimittis
T:Nunc dimittis
T:John Playford
T:Sourcs : The Whole Book of Psalms---London---W.Godbid---1677. Editor : André Vierendeels (27/08/16).
T:Notes : Original clefs : G2, G2, F4, F4(B) Editorial accidentals above the staff Original note values have been halved except  m 3, 8, 13 and 18  
T:©
T:©
C:John Playford
Z:©
%%score [ 1 2 ] 3
L:1/8
Q:1/4=95
M:2/2
K:C
V:1 treble nm="Soprano" snm="S"
V:2 treble-8 nm="Tenor" snm="T"
V:3 bass nm="MusicXML Part"
V:1
 G4 c2 B2 | c2 d2 e2 d2 | c8 || B2 A4 G2 | G2 ^F2 G4 || G4 c2 B2 | c2 d2 e2 d2 | c8 || B2 A4 G2 | %9
w: O, Lord, be-|cause my hearts de-|sire,|hath wish- ed|long to see,|my on- ly|Lord and Sa- vi-|our,|thy Son be-|
"^#" G2 F2 G4 || B4 c2 d2 | e2 d2 c2 c2 | B8 || e2 g4 ^f2 | e2 e2 d4 || d4 A2 B2 | c2 B2 A2 A2 | %17
w: fore I dye:|The joy and|health of all Man-|kind,|de- si- red|long be- fore,|which- now is|come in- to the|
 G8 || B2 A4 G2 | G2 ^F2 !fermata!G4 |] %20
w: world,|of mer- cy|brin- ging store.|
V:2
 G4 G2 F2 | E2 G2 c2 B2 | c8 || d2 c4 B2 | A2 A2 G4 || G4 G2 F2 | E2 G2 c2 B2 | c8 || d2 d4 B2 | %9
w: O, Lord, be-|cause my hearts de-|sire,|hath wish- ed|long to see,|my on- ly|Loerd and Sa- vi-|our,|thy Son be-|
 B2 A2 G4 || G4 A2 B2 | c2 G2 G2 ^F2 | G8 || B2 ^c4 d2 | d2 ^c2 d4 || ^F4 E2 G2 | ^F2 G2 G2 F2 | %17
w: fore I dye:|The joy and|health of all Man-|kind,|de- si- red|long be- fore,|which now is|come in- to the|
 G8 || G2 ^F4 B2 | A2 A2 !fermata!G4 |] %20
w: world,|of mer- cy|brin- ging store.|
V:3
"^BC""^Bass" C,4 E,2 D,2 | C,2 B,,2 C,2 G,,2 | C,8 || G,2 D,4 E,2 | C,2 D,2 G,,4 || %5
w: O, Lord, be-|cause my hearts de-|sire,|hath wish- ed|long to see,|
"^BC""^B" C,4 E,2 D,2 | C,2 B,,2 C,2 G,,2 | C,8 || G,2 ^F,4 G,2 | C,2 D,2 G,,4 || %10
w: my on- ly|Lord and Sa- vi-|our,|thy Son be-|fore I dye:|
"^BC""^B" G,4 E,2 D,2 | C,2 B,,2 C,2 A,,2 | G,,8 || G,2 E,4 D,2 | G,2 A,2 D,4 || %15
w: The joy and|health of all Man-|kind,|de- si- red|long be- fore,|
"^B""^BC" D,4 C,2 B,,2 | A,,2 G,,2 C,2 D,2 | G,,8 || G,,2 D,4 B,,2 | C,2 D,2 !fermata!G,,4 |] %20
w: which now is|come in- to the|world,|of mer- cy|bein- ging store.|

